!!!OTL: Die elfjaehrige Markgraefin Es wohnt ein' Witfrau in Oesterreich,
!!!ARE: Europa, Osteuropa, Tschechoslowakei, Sudetenland, Zips, Einsiedel
!!    bei Goellnitz
!!!ARD: Europa%Osteuropa%Slovensko@Einsiedel bei Goellnitz:
!!!ARL: 48.80/20.80:
!!!YOR: 2, S. 284
!!    1923 aufgezeichnet
!!!SCT: Q0053C
!!!YEM: Copyright 1995, estate of Helmut Schaffrath.
**kern
*ICvox
*Ivox
*M6/4
*k[b-e-]
*B-:
{4dd
=1
2ff
4ff
4cc
4dd
4ee-
=2
2dd
4a
2b-}
{4b-
=3
2gg
4gg
4bb-
4aa
4gg
=4
2ff
4cc
2dd}
{4ff
=5
4bb-
4bb-
4bb-
4ff
4aa-
4aa-
=6
4gg
4ee-
2.r}
{4gg
=7
4gg
4gg
4gg
4ff
4ff
4ff
=8
2ee-
4ff
2dd}
==
!!!AGN: Ballade, Braut - Werbung, Hochzeit, Minderjaehrige, Tod
!! Grundton in der kleinen Oktave. Modulation.
!!!ONB: ESAC (Essen Associative Code) Database: BALLADE
!!!AMT: compound duple
!!!AIN: vox
!!!EED: Helmut Schaffrath
!!!EEV: 1.0
*-
!!!title: @{OTL} [@{SCT}]
